web/public/images/vite.svg

<svg fill="none" height="42" viewBox="0 0 43 42" width="43" xmlns="http://www.w3.org/2000/svg" xmlns:xlink="http://www.w3.org/1999/xlink"><clipPath id="a"><path d="m.311279 0h42v42h-42z"/></clipPath><g clip-path="url(#a)"><path d="m24.3563 1.84278c-.0933-.00032-.1861.01446-.2748.04375-.1776.05927-.3312.17475-.4375.329l-10.0415 14.51797c-.0803.116-.1308.2501-.147.3903-.0157.1402.0036.282.056.413.0527.131.1368.247.245.3377.1085.0912.2377.1544.3763.1838l6.4872 1.3755-.4025 8.015c-.0091.1865.0431.371.1488.525.1059.155.2595.2711.4375.3307.1778.0591.3699.0591.5477 0 .1774-.0589.3309-.1737.4375-.3272l10.0415-14.518c.0805-.116.131-.25.147-.3903.0158-.1402-.0035-.282-.056-.413-.0522-.1317-.1364-.2484-.245-.3395-.1086-.0906-.2378-.1531-.3762-.182l-6.4873-1.3772.4025-8.01502c.0092-.18656-.043-.37098-.1487-.525-.1061-.15443-.2597-.26996-.4375-.329-.088-.02973-.1802-.04509-.273-.0455zm-22.02025 15.28622c-.53725.0018-1.05.217-1.429754.595-.379306.3794-.593194.8933-.595 1.4298-.002182.5367.207922 1.0525.5845 1.435l18.973504 18.9735c.1887.189.4129.3389.6597.441.2469.1021.5116.1545.7788.154h.007c.2672.0005.5319-.0519.7787-.154.2469-.1021.4711-.2519.6598-.441l18.9735-18.9753c.3764-.3825.5865-.8983.5845-1.435-.0025-.5358-.2163-1.0489-.595-1.428-.3795-.3791-.8933-.593-1.4298-.595-.5367-.0023-1.0526.2078-1.435.5845l-9.45 9.45-.0455.035-8.0447 8.0465-8.0465-8.0447c-.0123-.014-.028-.0228-.042-.035l-9.45175-9.4518c-.38245-.3766-.89828-.5867-1.435-.5845z" fill="#a86338"/></g></svg>

<svg width="43" height="42" viewBox="0 0 43 42" fill="none" xmlns="http://www.w3.org/2000/svg">
<g clip-path="url(#clip0_30_417)">
<path d="M24.3563 1.84278C24.263 1.84246 24.1702 1.85724 24.0815 1.88653C23.9039 1.9458 23.7503 2.06128 23.644 2.21553L13.6025 16.7335C13.5222 16.8495 13.4717 16.9836 13.4555 17.1238C13.4398 17.264 13.4591 17.4058 13.5115 17.5368C13.5642 17.6678 13.6483 17.7838 13.7565 17.8745C13.865 17.9657 13.9942 18.0289 14.1328 18.0583L20.62 19.4338L20.2175 27.4488C20.2084 27.6353 20.2606 27.8198 20.3663 27.9738C20.4722 28.1288 20.6258 28.2449 20.8038 28.3045C20.9816 28.3636 21.1737 28.3636 21.3515 28.3045C21.5289 28.2456 21.6824 28.1308 21.789 27.9773L31.8305 13.4593C31.911 13.3433 31.9615 13.2093 31.9775 13.069C31.9933 12.9288 31.974 12.787 31.9215 12.656C31.8693 12.5243 31.7851 12.4076 31.6765 12.3165C31.5679 12.2259 31.4387 12.1634 31.3003 12.1345L24.813 10.7573L25.2155 2.74228C25.2247 2.55572 25.1725 2.3713 25.0668 2.21728C24.9607 2.06285 24.8071 1.94732 24.6293 1.88828C24.5413 1.85855 24.4491 1.84319 24.3563 1.84278ZM2.33605 17.129C1.7988 17.1308 1.28605 17.346 0.906296 17.724C0.52699 18.1034 0.313102 18.6173 0.311296 19.1538C0.309114 19.6905 0.519218 20.2063 0.895796 20.5888L19.8693 39.5623C20.058 39.7513 20.2822 39.9012 20.529 40.0033C20.7759 40.1054 21.0406 40.1578 21.3078 40.1573H21.3148C21.582 40.1578 21.8467 40.1054 22.0935 40.0033C22.3404 39.9012 22.5646 39.7514 22.7533 39.5623L41.7268 20.587C42.1032 20.2045 42.3133 19.6887 42.3113 19.152C42.3088 18.6162 42.095 18.1031 41.7163 17.724C41.3368 17.3449 40.823 17.131 40.2865 17.129C39.7498 17.1267 39.2339 17.3368 38.8515 17.7135L29.4015 27.1635L29.356 27.1985L21.3113 35.245L13.2648 27.2003C13.2525 27.1863 13.2368 27.1775 13.2228 27.1653L3.77105 17.7135C3.3886 17.3369 2.87277 17.1268 2.33605 17.129Z" fill="#A86338"/>
</g>
<defs>
<clipPath id="clip0_30_417">
<rect width="42" height="42" fill="white" transform="translate(0.311279)"/>
</clipPath>
</defs>
</svg>
